X:1
T:Sonata for violin and harpsichord C minor (A = 415 Hz)
T:BWV 1017
T:J. S. Bach
%%score { 1 | 2 } { 3 | 4 }
L:1/8
Q:1/4=60
M:6/8
K:D
V:1 treble nm="ハープ"
V:2 bass 
V:3 treble nm="ハープ"
V:4 bass 
V:1
"^Largo" F>dc c/4B/4c/4B/4c/4B/4^A/B | B3- B2 z | B>gf f/4e/4f/4e/4f/4e/4^d/e | e6- | e>c^A G>Fe | %5
 d>ec B3- | B3/2c/4d/4e- e>cd | G6- | G3/2g/4a/4b- b>^ga | d/4c/4d/4c/4d/4c/4B/A =f3- | %10
 f3/2e/4=f/4g- gf/e/d/c/ | d6- | d>^ef- f>dc | B>^ef- f>BA | ^G>Bd- d>^e^g | ^A6 | %16
 F>dc c/4B/4c/4B/4c/4B/4^A/B | B3- B2 z | B>gf f/4e/4f/4e/4f/4e/4^d/e | e6- | e>c^A G>Fe | %21
 d>ec B3- | B3/2c/4d/4e- e>cd | G6- | G3/2g/4a/4b- b>^ga | d/4c/4d/4c/4d/4c/4B/A =f3- | %26
 f3/2e/4=f/4g- gf/e/d/c/ | d6- | d>^ef- f>dc | B>^ef- f>BA | ^G>Bd- d>^e^g | ^A6 | %32
 c>^AF e/>f/g/f/e | d3- d>fB | =c>A=F f/>g/a/g/f | g6- | g>e=f- f>^de | a/>b/=c'/b/a a>=fe | %38
 ^d/f<ea/ g/=c'/b/g/a/f/ | e6 | c>de- e>fg- | g>ab- b>ag | f>ed c/d/e/^A/B | ^A>^GF F3- | %44
 F>^AB- B>GF | E>^AB- B>ED | C>EG- G>Fd | B6- | B3/2c/4d/4e- e>cd | G3/2A/4B/4=c- c>^AB | %50
 f/4^e/4f/4e/4f/4e/4^d/4e/4f- f/g/f/=d/=e/c/ | %51
 c/4B/4c/4B/4c/4B/4c/4B/4c/4B/4c/4B/4 c/4B/4c/4B/4c/4B/4c/4B/4c/4B/4c/4B/4 | c>^AF e/>f/g/f/e | %53
 d3- d>fB | =c>A=F f/>g/a/g/f | g6- | g>e=f- f>^de | a/>b/=c'/b/a a>=fe | ^d/f<ea/ g/=c'/b/g/a/f/ | %59
 e6 | c>de- e>fg- | g>ab- b>ag | f>ed c/d/e/^A/B | ^A>^GF F3- | F>^AB- B>GF | E>^AB- B>ED | %66
 C>EG- G>Fd | B6- | B3/2c/4d/4e- e>cd | G3/2A/4B/4=c- c>^AB | %70
 f/4^e/4f/4e/4f/4e/4^d/4e/4f- f/g/f/=d/=e/c/ | c/4B/4c/4B/4c/4B/4c/4B/4c/4B/4c/4B/4 B3 | z6 | %73
[M:4/4][Q:1/4=120]"^Allegro" z8 | z8 | z8 | z8 | z8 | f/^g/a/f/ gc fF a2- | %79
 a/^g/a/c'/ b/a/g/b/ a2 z c' | d/c/d/f/ bb bc a2- | ad'/c'/ b/a/^g/f/ ^e/c/d/c/ B/g/c/B/ | %82
 Af^G^e f/a/f/e/ ^d/=c/B/A/ | G/F/G/B/ e2- e/g/e/c/ ^A/G/F/E/ | D/E/F/d/ ^A>B B2 z/ B/c/d/ | %85
 GBce A/c/d/e/ f2- | fe/d/ c/d/e/c/ ^Ad/c/ B/c/d/B/ | GB e2- e^A g2- | %88
 g/f/e/d/ f/e/d/c/ d/c/d/f/ bb | bc a2 B/A/B/d/ gg | gA f2 G/F/G/B/ ee | eF d2- db/a/ g/f/e/d/ | %92
 c/B/A/B/ c/d/e/G/ F/E/F/A/ dF | EdcA G/F/G/B/ eG | FedB A/^G/A/c/ fA | %95
 ^Gf ^e/c/^d/e/ f2- f/a/^g/f/ | ^e/f/^g/c/ f4 e2 | %97
 f2 A/G/A/d/ a/4g/4a/4g/4a/4g/4a/4g/4 a/4g/4a/4g/4a/4g/4a/4g/4 | %98
 f2 F/E/F/B/ f/4e/4f/4e/4f/4e/4f/4e/4 f/4e/4f/4e/4f/4e/4f/4e/4 | d2 z f- f/e/d/c/ B/A/G/F/ | %100
 G/E/A/F/ BA/G/ A/4G/4A/4G/4F z/ F/^G/^A/ | B/^A/B/d/ c/B/A/B/ c/B/A/^G/ FB | %102
 A/4G/4A/4G/4E z G- G/E/C/^A,/ F,^A | B>c c>B B4- | B4- B/^A/B/e/ g2- | g/f/g/^a/ c'e d>c c>B | %106
 B2 z2 z g/e/ c/d/4e/4d/c/ | c4- c B2 ^A | B/c/d/B/ cF BB, d2- | %109
 d/c/d/f/ e/d/c/e/ d/c/B/c/ d/^e/f/^g/ | Ac/A/ F/^G/4A/4G/F/ F4- | %111
 F/^E/^G/B/ d/c/4B/4c/G/ A>B A/G/c | B/4A/4B/4A/4F z c- c/B/c/d/ e/d/c/e/ | d^de^e f4- | %114
 fe/^d/ e2- e=d/c/ .d2 | E/D/E/G/ cA B/4A/4B/4A/4G z2 | =c/B/c/e/ af g/4f/4g/4f/4e z2 | %117
 A/G/A/=c/ f/e/f/a/ f/b/g/e/ fB | eE g2- g/f/g/b/ a/g/f/a/ | g2 z b =c/B/c/e/ aa | %120
 aB g2- g=c'/b/ a/g/f/e/ | ^d/B/=c/B/ A/f/B/A/ GeFd | E/^D/E/A/ =c/A/^G/A/ =D/=C/D/G/ B/G/F/G/ | %123
 =C/B,/C/E/ A/=F/E/F/ ^D2 z e/^d/ | e>f ^d>e ef g2- | g>a g/f/e/f/ e/^G/A/B/ c/d/e/c/ | %126
 ^A/B/c/A/ FB- BA/B/ cc | d/4c/4d/4c/4B ee e/4d/4e/4d/4d/e/ ff | %128
 g/4f/4g/4f/4e/f/ gg a/4g/4a/4g/4f/g/ aA | Bdgc f3 B | e/f/e/d/ c/B/^A/c/ F2 z A | %131
 B>c ^A>B B2 z/ f/e/d/ | c/B/A/B/ =c/B/c/f/ fG z/ d/^c/B/ | A/G/F/G/ A/G/A/d/ dE z/ B/A/G/ | %134
 F/E/D/E/ F/G/A/F/ BCDB | EF/G/ A/B/c/A/ d/e/f/d/ eA | dD f2- f/^e/f/a/ ^g/f/e/g/ | %137
 f2 z a B/A/B/d/ gg | gA f2- fb/a/ g/f/e/d/ | c/A/B/A/ G/e/A/G/ FdEc- | %140
 c/F/^G/A/ B/c/d/e/ f e2 ^g | a^g/f/ e2- e/d/c/B/ A/^G/F/E/ | %142
 F/^D/^G/E/ AG/F/ G/4F/4G/4F/4E z/ E/F/G/ | A/^G/A/c/ B/A/G/A/ B/A/G/F/ EA | %144
 G/4F/4G/4F/4D z f- f/d/B/^G/ EG | A>B B>A A/^G/A/c/ e/c/B/A/ | %146
 ^G/A/B/^d/ e/G/B/^A/ B/A/B/=d/ f/d/c/B/ | A/c/d/^e/ f/A/c/^B/ c/B/c/=e/ ^g/e/^d/c/ | %148
 ^B/c/^d/B/ ^G2- G/C/^D/E/ F2- | F/A/^G/F/ E/G/c/B/ A/G/F/E/ F/E/^D/E/ | C2 z2 F/E/F/A/ d^G | %151
 A/4^G/4A/4G/4F z2 B/A/B/^e/ ^g/f/g/b/ | %152
 ^gf A/G/A/d/ a/4=g/4a/4g/4a/4g/4a/4g/4 a/4g/4a/4g/4a/4g/4a/4g/4 | %153
 f2 F/E/F/B/ f/4e/4f/4e/4f/4e/4f/4e/4 f/4e/4f/4e/4f/4e/4f/4e/4 | %154
 d/F/^G/^A/ B/c/d/B/ G/=A/B/G/ EA- | A^G/A/ B2- B>c B/A/G/A/ | %156
 ^G/d/B/G/ ^E/D/C/B,/ A,/B,/C/A/ E>F | F2 z/ F/^G/A/ DFGB | E/^G/A/B/ c2- cB/A/ G/A/B/G/ | %159
 ^EA/^G/ F/G/A/F/ DF B2- | B^E d2- d/c/B/A/ c/B/A/^G/ | Fc/A/ F/^G/4A/4G/F/ F4- | %162
 F/^E/^G/B/ d/c/4B/4c/G/ A>B A/G/c | B/4A/4B/4A/4F z c- c/B/c/d/ e/d/c/e/ | d^de^e f2 z2 | %165
 z/ c/d/e/ f/g/a/f/ gg/e/ c/d/4e/4d/c/ | c4- c B2 ^A | B/c/d/B/ cF BB, d2- | %168
 d/c/d/f/ e/d/c/e/ d/f/d/B/ ^G/f/e/d/ | c/e/c/A/ F/e/d/=c/ B2- B/c/B/A/ | %170
 G/F/G- G/g/f/e/ d/c/d- d/d/c/B/ | ^A/^G/A/c/ ff f=G e2 | F/E/F/^A/ dd dE c2 | D/C/D/F/ BB BC ^A2 | %174
 B/c/d/B/ cF BB, d2- | d/c/d/f/ e/d/c/e/ d2 z f | G/F/G/B/ ee eF d2- | %177
 dg/f/ e/d/c/B/ ^A/F/G/F/ E/c/F/E/ | DBC^A B/=A/B/e/ g/e/^d/e/ | %179
 A/G/A/^d/ f/d/c/d/ G/F/G/B/ e/=c/B/c/ | ^A2 z B/A/ B>c A>B | !fermata!B8 | z8 | %183
[M:3/4][Q:1/4=60]"^Adagio" z2 A,2 D2- | (3:2:2D2 B, (3:2:2C2 E G2- | (3:2:2G2 E (3:2:2F2 A B2 | %186
 D2 A,2 z2 | z2 A,2 D2- | (3:2:2D2 B, (3:2:2C2 E G2- | (3:2:2G2 E (3:2:2F2 A B2 | %190
 (6:4:6D/4C/4D/4C/4D/4C/4(6:4:6D/4C/4D/4C/4D/4C/4 A,2 z2 | z2 D2 =c2- | (3:2:2c2 A (3:2:2B2 C D2 | %193
 (3:2:2D2 G (6:4:6F/4E/4F/4E/4F/4E/4(6:4:6F/4E/4F/4E/4F/4E/4 (6:4:6F/4E/4F/4E/4F/4E/4D | D4 z2 | %195
 z2 A2 =C2- | (3:2:2C2 B, (3:2:2E2 ^C D2- | %197
 (3:2:2D2 B, (6:4:6A,/4G,/4A,/4G,/4A,/4G,/4(6:4:6A,/4G,/4A,/4G,/4A,/4G,/4 (6:4:6A,/4G,/4A,/4G,/4A,/4G,/4F, | %198
 F,4 z2 | z2 F2 d2- | (3:2:2d2 B (3:2:2c2 ^A E2- | (3:2:2E2 D (3:2:2^E2 ^G B2- | %202
 (3:2:2B2 ^G ^A2 z2 | z2 d2 F2- | (3:2:2F2 D (3:2:2E2 ^A c2- | (3:2:2c2 ^A (3:2:2B2 G (3:2:2^E2 F | %206
 (3:2:2B,2 ^G, ^A,2 z2 | z2 (3:2:2F2 G A2- | (3:2:2A2 B (3:2:2=c2 A B2- | %209
 (3:2:2B2 e (3:2:2=c2 B (3:2:2A2 G |{F} E4 z2 | z2 (3:2:2G2 E =C2- | %212
 (3:2:2C2 ^A, (3:2:2B,2 ^D E2- | %213
 (3:2:2E2 A (6:4:6G/4F/4G/4F/4G/4F/4(6:4:6G/4F/4G/4F/4G/4F/4 (6:4:6G/4F/4G/4F/4G/4F/4E | E4 z2 | %215
 z2 (3:2:2G2 A B2- | B2 (3:2:2A2 F G2- | (3:2:2G2 E (3:2:2F2 B ^G2- | (3:2:2G2 A C2 z2 | %219
 z2 (3:2:2D2 E F2- | (3:2:2F2 D (3:2:2E2 C A,2- | (3:2:2A,2 F, (3:2:2^G,2 B, D2- | %222
 (3:2:2D2 B, C2 z2 | z2 (3:2:2A2 B =c2- | (3:2:2c2 A (3:2:2B2 G{F} E2- | %225
 (3:2:2E2 C (3:2:2D2 F G2- | (3:2:2G2 E (3:2:2F2 =C A,2- | (3:2:2A,2 F, (3:2:2G,2 B, =C2- | %228
 (3:2:2C2 A, (3:2:2B,2 D =F2- | %229
 (3:2:2F2 E (6:4:6D/4C/4D/4C/4D/4C/4(6:4:6D/4C/4D/4C/4D/4C/4 (6:4:6D/4C/4D/4C/4D/4C/4D | D4 z2 | %231
 z2 A2 =C2- | (3:2:2C2 A, (3:2:2B,2 D G2- | (3:2:2G2 F c2 E2- | (3:2:2E2 C (3:2:2D2 F =c2- | %235
 (3:2:2c2 B e2 G2- | (3:2:2G2 E (3:2:2F2 B (3:2:2^G2 A | (3:2:2C2 D A,2 (3G,F,G, | F,2 z2 z2 | %239
 z f/e/ d/c/B/d/ G2- | G/B/d/c/ B/A/G/B/ ^E2- | E/^G/B/A/ G/F/^E/G/ B,2- | B,2 !fermata!^A,4 | z6 | %244
[M:2/4]"^Allegro" z4 | z4 | z4 | z4 | fB/^A/ Bf/^e/ | fF Fa | ^g/f/g/a/ b/a/g/f/ | %251
 ^e/^d/e/f/ ^g/f/e/d/ | cc'/b/ c'd/c/ | df b2- | bb/a/ bc/B/ | ce a2- | aB/A/ B^g/f/ | %257
 ^gA/^G/ Af/^e/ | fA ^G^e | f4- | f/f/e/d/ F/e/d/c/ | F/d/c/B/ E/c/B/^A/ | D/B/A/G/ ^D/A/G/F/ | %263
 E/G/F/E/ D/F/E/D/ | G/F/E/D/ C/B,/^A,/B,/ | GF z2 | z/ B,/D/F/ B/F/d- | d/G/F/E/ G/F/E/D/ | %268
 G/A,/C/E/ G/E/c- | c/F/E/D/ F/E/D/C/ | F/D/C/B,/ G/F/E/D/ | E/C/B,/^A,/ F/E/D/C/ | %272
 B,/^A,/B,/G/ F/E/D/C/ | D/B/A/G/ ^D/A/G/F/ | GB e2- | e/A/G/F/ C/G/F/E/ | FA d2- | dB/^A/ Bg- | %278
 gc/B/ ca- | ad/c/ db- | ba/g/ f/e/d/c/ | a>b e>d | d/f/e/d/ c/e/d/c/ | d/b/a/^g/ c/a/g/f/ | %284
 B/^g/f/^e/ A/f/g/a/ | ^g/f/^e/^d/ c/B/A/^G/ | FC/B,/ CF/^E/ | FF, F,A | ^G/F/G/A/ B/A/G/F/ | %289
 ^E/^D/E/F/ ^G/F/E/D/ | Cc/B/ cD/C/ | DF B2- | BB/A/ BC/B,/ | CE A2- | AB,/A,/ B,^G/F/ | %295
 ^GA,/^G,/ A,F/^E/ | FA, ^G,^E | F,4 | z4 | z4 | z4 | z4 | fB/^A/ Bf/^e/ | fF Fa | %304
 ^g/f/g/a/ b/a/g/f/ | ^e/^d/e/f/ ^g/f/e/d/ | cc'/b/ c'd/c/ | df b2- | bb/a/ bc/B/ | ce a2- | %310
 aB/A/ B^g/f/ | ^gA/^G/ Af/^e/ | fA ^G^e | f4- | f/f/e/d/ F/e/d/c/ | F/d/c/B/ E/c/B/^A/ | %316
 D/B/A/G/ ^D/A/G/F/ | E/G/F/E/ D/F/E/D/ | G/F/E/D/ z2 | GF z2 | z/ B,/D/F/ B/F/d- | %321
 d/G/F/E/ G/F/E/D/ | G/A,/C/E/ G/E/c- | c/F/E/D/ F/E/D/C/ | F/D/C/B,/ G/F/E/D/ | %325
 E/C/B,/^A,/ F/E/D/C/ | B,/^A,/B,/G/ F/E/D/C/ | D/B/A/G/ ^D/A/G/F/ | GB e2- | e/A/G/F/ C/G/F/E/ | %330
 FA d2- | dB/^A/ Bg- | gc/B/ ca- | ad/c/ db- | b-a/g/ f/e/d/c/ | a>b e>d | d/f/e/d/ c/e/d/c/ | %337
 d/b/a/^g/ c/a/g/f/ | B/^g/f/^e/ A/f/g/a/ | ^g/f/^e/^d/ c/B/A/^G/ | FC/B,/ CF/^E/ | FF, F,A | %342
 ^G/F/G/A/ B/A/G/F/ | ^E/^D/E/F/ ^G/F/E/D/ | Cc/B/ cD/C/ | DF B2- | BB/A/ BC/B,/ | CE A2- | %348
 AB,/A,/ B,^G/F/ | ^GA,/^G,/ A,F/^E/ | FA, ^G,^E | F,4 | F/d/c/B/ c/B/^A/^G/ | ^A g2 B/A/ | %354
 B/F/c/B/ c/F/d/c/ | d/e/d/c/ B/d/c/e/ | d/c/d/e/ ^d/e/f/e/ | f/g/f/g/ a/g/a/b/ | g e2 ^d | e4- | %360
 eb/a/ b=c/B/ | =ce a2- | aa/g/ aB/A/ | Bd g2- | gA/G/ Af/e/ | fG/F/ Ge/^d/ | eG F^d | e4- | %368
 e/e/d/c/ E/d/c/B/ | E/c/B/A/ D/B/A/^G/ | A4- | A/a/g/f/ e2- | e/f/g/f/ g/f/e/f/ | dA f2- | %374
 f/d/c/B/ e/d/c/B/ | c4- | c/c/B/A/ d/c/B/^A/ | B4- | B/C/F/E/ G/F/^A/^G/ | %379
 B/4^A/4B/4A/4B/4A/4B/4A/4 B/4A/4B/4A/4B/4A/4B/4A/4 | B4- | B4 | ^A/^G/A/B/ A/B/c/B/ | %383
 c/d/c/d/ e/d/e/f/ | d b2 ^a | b/g/f/e/ d/c/B/A/ | ^G/F/E/D/ C/B,/^A,/^G,/ | %387
 ^A/^G/F/E/ D/C/B,/^A,/ | B/A/G/F/ E/D/C/B,/ | c/B/^A/^G/ F/E/D/C/ | D/d/c/B/ E/c/B/^A/ | B4- | %392
 B/e/d/c/ g/d/c/B/ | cE A2- | A/d/=c/B/ f/c/B/A/ | B/g/f/e/ f/e/^d/c/ | ^d =c'2 e/d/ | %397
 e/B/f/e/ f/B/g/f/ | g/e/d/c/ f/d/c/B/ | e/c/B/^A/ d/B/c/d/ | c/B/^A/^G/ F/E/D/C/ | %401
 B,/^G,/^A,/B,/ A,/B,/C/B,/ | C/D/C/D/ E/D/E/F/ | D B2 ^A | B/b/a/g/ B/a/g/f/ | B/g/f/e/ B/f/e/d/ | %406
 g/f/e/d/ c/B/^A/B/ | gf z2 | z/ B,/D/F/ B/F/d- | d/G/F/E/ G/F/E/D/ | G/A,/C/E/ G/E/c- | %411
 c/F/E/D/ F/E/D/C/ | F/D/C/B,/ G/F/E/D/ | E/C/B,/^A,/ F/E/D/C/ | B,/^A,/B,/G/ F/E/D/C/ | B,4 | %416
 F/d/c/B/ c/B/^A/^G/ | ^A g2 B/A/ | B/F/c/B/ c/F/d/c/ | d/e/d/c/ B/d/c/e/ | d/c/d/e/ ^d/e/f/e/ | %421
 f/g/f/g/ a/g/a/b/ | g e2 ^d | e4- | eb/a/ b=c/B/ | =ce a2- | aa/g/ aB/A/ | Bd g2- | gA/G/ Af/e/ | %429
 fG/F/ Ge/^d/ | eG F^d | e4- | e/e/d/c/ E/d/c/B/ | E/c/B/A/ D/B/A/^G/ | A4- | A/a/g/f/ e2- | %436
 e/f/g/f/ g/f/e/f/ | dA f2- | f/d/c/B/ e/d/c/B/ | c4- | c/c/B/A/ d/c/B/^A/ | B4- | %442
 B/C/F/E/ G/F/^A/^G/ | B/4^A/4B/4A/4B/4A/4B/4A/4 B/4A/4B/4A/4B/4A/4B/4A/4 | B4- | B4 | %446
 ^A/^G/A/B/ A/B/c/B/ | c/d/c/d/ e/d/e/f/ | d b2 ^a | b/g/f/e/ d/c/B/A/ | ^G/F/E/D/ C/B,/^A,/^G,/ | %451
 ^A/^G/F/E/ D/C/B,/^A,/ | B/A/G/F/ E/D/C/B,/ | c/B/^A/^G/ F/E/D/C/ | D/d/c/B/ E/c/B/^A/ | B4- | %456
 B/e/d/c/ g/d/c/B/ | cE A2- | A/d/=c/B/ f/c/B/A/ | B/g/f/e/ f/e/^d/c/ | ^d =c'2 e/d/ | %461
 e/B/f/e/ f/B/g/f/ | g/e/d/c/ f/d/c/B/ | e/c/B/^A/ d/B/c/d/ | c/B/^A/^G/ F/E/D/C/ | %465
 B,/^G,/^A,/B,/ A,/B,/C/B,/ | C/D/C/D/ E/D/E/F/ | D B2 ^A | B/b/a/g/ B/a/g/f/ | B/g/f/e/ B/f/e/d/ | %470
 g/f/e/d/ c/B/^A/B/ | gf z2 | z/ B,/D/F/ B/F/d- | d/G/F/E/ G/F/E/D/ | G/A,/C/E/ G/E/c- | %475
 c/F/E/D/ F/E/D/C/ | F/D/C/B,/ G/F/E/D/ | E/C/B,/^A,/ F/E/D/C/ | B,/^A,/B,/G/ F/E/D/C/ | B,4 |] %480
V:2
 B,,D,F, A,,D,F, | G,,B,,E, F,,A,,^D, | E,,G,,B,, D,,G,,B,, | C,,E,,G,, B,,,E,,G,, | %4
 ^A,,E,G, F,,C,F, | B,,D,F, A,,D,F, | G,,B,,E, F,,A,,D, | E,G,B, D,G,B, | C,E,G, D,E,F, | %9
 G,,C,E, ^G,,B,,D, | A,,D,E, A,,C,G, | D,F,A, C,F,^A, | B,,D,F, A,,C,F, | ^G,,B,,D, F,,A,,D, | %14
 ^E,,^G,,B,, C,,G,,C, | F,,3- F,,/^A,,/C,/E,/C,/A,,/ | B,,D,F, A,,D,F, | G,,B,,E, F,,A,,^D, | %18
 E,,G,,B,, D,,G,,B,, | C,,E,,G,, B,,,E,,G,, | ^A,,E,G, F,,C,F, | B,,D,F, A,,D,F, | %22
 G,,B,,E, F,,A,,D, | E,G,B, D,G,B, | C,E,G, D,E,F, | G,,C,E, ^G,,B,,D, | A,,D,E, A,,C,G, | %27
 D,F,A, C,F,^A, | B,,D,F, A,,C,F, | ^G,,B,,D, F,,A,,D, | ^E,,^G,,B,, C,,G,,C, | F,,6 | %32
 F,,^A,,C, F,^A,[K:treble]C | B,DF F,B,D |[K:bass] ^D,F,A, B,,F,B, | E,,G,,B,, G,,B,,E, | %36
 A,,E,A, B,,D,^G, | =C,E,A, B,,D,G, | A,,=C,F, B,,E,B, | E,,G,,B,, G,,B,,E, | A,,C,A, B,,D,G, | %41
 C,E,G, A,,C,A, | D,F,B, E,G,C | F,^A,C E,A,C | D,F,B, B,,D,F, | G,,B,,E, F,,B,,D, | %46
 E,,B,,C, F,,^A,,F, | B,,D,F, A,,D,F, | G,,B,,C, F,,A,,D, | E,,G,,E, D,,F,,B,, | %50
 C,,B,,^A,, B,,D,,F,, | B,,/D,/B,,/F,,/D,,/F,,/ B,,,3 | F,,^A,,C, F,^A,[K:treble]C | B,DF F,B,D | %54
[K:bass] ^D,F,A, B,,F,B, | E,,G,,B,, G,,B,,E, | A,,E,A, B,,D,^G, | =C,E,A, B,,D,G, | %58
 A,,=C,F, B,,E,B, | E,,G,,B,, G,,B,,E, | A,,C,A, B,,D,G, | C,E,G, A,,C,A, | D,F,B, E,G,C | %63
 F,^A,C E,A,C | D,F,B, B,,D,F, | G,,B,,E, F,,B,,D, | E,,B,,C, F,,^A,,F, | B,,D,F, A,,D,F, | %68
 G,,B,,C, F,,A,,D, | E,,G,,E, D,,F,,B,, | C,,B,,^A,, B,,D,,F,, | B,,/D,/B,,/F,,/D,,/F,,/ B,,,3 | %72
 z6 |[M:4/4] z8 | z8 | z8 | z8 | z8 | F,2 E,2 D,2 z/ C,/B,,/A,,/ | B,,C,D,E, A,,/E,/F,/^G,/ A,2- | %80
 A,^G,/F,/ G,/A,/G,/F,/ ^E,C, z/ F,/G,/A,/ | B,/A,/B,/C/ DB, C2 z/ B,/A,/^G,/ | %82
 F,/E,/D,/C,/ B,,C, F,,A,,B,,^D, | E,D,C,B,, ^A,,C,F,,A,, | B,,/C,/D,/B,,/ C,F,, B,,B,,, D,2- | %85
 D,/C,/D,/F,/ E,/D,/C,/E,/ D,2 z F, | G,,/F,,/G,,/B,,/ E,E, E,F,, D,2- | %87
 D,G,/F,/ E,/D,/C,/B,,/ ^A,,/F,,/G,,/F,,/ E,,/C,/F,,/E,,/ | D,,G,,C,,F,, B,,,C,,D,,E,, | %89
 F,,E,,D,,F,, G,,A,,B,,C, | D,C,B,,D, E,F,G,A, | B,CB,A, G,A,B,G, | A,G,F,E, D,E,F,G, | %93
 A,A,, z/ A,/G,/F,/ E,F,G,A, | B,B,, z/ B,/A,/^G,/ F,G,A,B, | CB,CA, DCDB, | %96
 CC,D,A,, B,,^G,,C,C,, | F,/E,/F,/A,/ DF, E,DCE, | D,/C,/D,/F,/ B,D, C,B,^A,F, | %99
 B,,2 A,,2 G,,2 z/ F,,/E,,/D,,/ | E,,F,,G,,A,, D,,/A,,/B,,/C,/ D,2- | %101
 D,C,/B,,/ C,/D,/C,/B,,/ ^A,,F,, z/ B,,/C,/D,/ | E,/D,/E,/F,/ G,E, F,2 z/ E,/D,/C,/ | %103
 B,,/A,,/G,,/F,,/ E,,F,, G,,G, z G,, | F,,F, z F,, E,,E, z/ E,/D,/E,/ | %105
 C,/D,/E,/C,/ B,,/^A,,/^G,,/F,,/ B,,E,,F,,F,, | B,,,B,,/C,/ D,^D, E,C,/=D,/ E,^E, | %107
 F,F,/^G,/ A,^A, B,E,F,F,, | B,,B,^A,=A, ^G,=G,F,B, | E,D,/C,/ F,F,, B,,^G,^E,C, | %110
 F,F,,/^G,,/ A,,^A,, B,,G,,/=A,,/ B,,^B,, | C,C,/^D,/ E,^E, F,B,,C,C,, | F,,F,^E,=E, ^D,=D,C,F, | %113
 B,,A,,/^G,,/ C,C,, F,,F,B,,^D, | E,,E,A,,C, D,/C,/D,/F,/ B,D, | C,B,A,C, B,,/A,,/B,,/D,/ G,B,, | %116
 A,,G,F,D, G,,/F,,/G,,/B,,/ E,G,, | F,,E,^D,B,, E,,E,D,=D, | =C,2 z/ B,,/A,,/G,,/ A,,B,,C,D, | %119
 G,,/D,/E,/F,/ G,2- G,F,/E,/ F,/G,/F,/E,/ | ^D,B,, z/ E,/F,/G,/ A,/G,/A,/B,/ =CA, | %121
 B,2 z/ A,/G,/F,/ E,/D,/=C,/B,,/ A,,B,, | =C,=C z C, B,,B, z B,, | %123
 A,,A, z/ A,/G,/A,/ F,/G,/A,/F,/ E,/^D,/C,/B,,/ | E,A,,B,,B,,, E,,2 z2 | A,/B,/C/A,/ DD, A,A,, z2 | %126
 F,/^G,/^A,/F,/ B,B,, F,F,, z2 | B,/C/D/B,/ CF, B,B,, D2- | D/C/D/F/ E/D/C/E/ D2 z F | %129
 G,/F,/G,/B,/ EE EF, D2- | DG/F/ E/D/C/B,/ ^A,/F,/G,/F,/ E,/C/F,/E,/ | D,G,C,F, B,,C,D,E, | %132
 F,E,D,F, G,A,B,C | DCB,D E,F,G,A, | B,CB,A, G,A,B,G, | A,G,F,E, D,2 C,2 | %136
 B,,2 z/ A,,/B,,/C,/ D,C,B,,C, | F,,/C,/D,/E,/ F,2- F,E,/D,/ E,/F,/E,/D,/ | %138
 C,A,, z/ D,/E,/F,/ G,/F,/G,/A,/ B,G, | A,2 z/ G,/F,/E,/ D,/C,/B,,/A,,/ G,,A,, | %140
 D,,F,/E,/ D,/C,/B,,/A,,/ ^G,,/E,/F,/E,/ D,/B,/E,/D,/ | C, A,2 ^G, F,/^E,/F, z/ =E,/F,/G,/ | %142
 A,^G,F,G, C,/G,/A,/B,/ C2- | CB,/A,/ B,/C/B,/A,/ ^G,E, z/ A,,/B,,/C,/ | %144
 D,/C,/D,/E,/ F,D, E,2 z/ D,/C,/B,,/ | A,,/^G,,/F,,/E,,/ D,,E,, A,,B,,C,D, | %146
 E,E,, z/ E,/D,/C,/ B,,C,D,E, | F,F,, z/ F,/E,/^D,/ C,D,E,F, | ^G,F,G,E, A,G,A,F, | %149
 ^G,F,/G,/ A,E, F,^D,G,^G,, | C,/B,,/C,/E,/ A,C, B,,A,^G,B,, | A,,/^G,,/A,,/C,/ F,A,, G,,F,^E,C, | %152
 F,,/^E,,/F,,/A,,/ D,F,, =E,,D,C,E,, | D,,/C,,/D,,/F,,/ B,,D,, C,,B,,^A,,F,, | %154
 B,,B,,, z2 E,/F,/^G,/E,/ A,A,, | E,E,, z2 C,/^D,/^E,/C,/ F,F,, | C,C,, z2 F,/^G,/A,/F,/ G,C, | %157
 F,F,, A,2- A,/^G,/A,/C/ B,/A,/G,/B,/ | A,2 z C D,/C,/D,/F,/ B,B, | %159
 B,C, A,2- A,D/C/ B,/A,/^G,/F,/ | ^E,/C,/D,/C,/ B,,/^G,/C,/B,,/ A,,D,^G,,C, | %161
 F,,F,/^G,/ A,^A, B,G,/=A,/ B,^B, | CC,/^D,/ E,^E, F,B,,C,C,, | F,,F,^E,=E, ^D,=D,C,F, | %164
 B,,A,,/^G,,/ C,C,, F,,F,/^G,/ A,^A, | B,B,,/C,/ D,^D, E,C,/=D,/ E,^E, | %166
 F,F,,/^G,,/ A,,^A,, B,,E,F,F,, | B,,B,^A,=A, ^G,=G,F,B, | E,D,/C,/ F,F,, B,,B,E,^G, | %169
 A,,A,D,F, G,,G,^D,B,, | E,,E,^A,,F,, B,,,B,,^E,,C,, | F,,8- | F,,8- | F,,6- F,,F, | %174
 G,^G,A,^A, B,2 z/ F,/E,/D,/ | E,F,G,A, D,/A,/B,/C/ D2- | DC/B,/ C/D/C/B,/ ^A,F, z/ B,,/C,/D,/ | %177
 E,/D,/E,/F,/ G,E, F,2 z/ E,/D,/C,/ | B,,/A,,/G,,/F,,/ E,,F,, G,,G, z G,, | %179
 F,,F, z F,, E,,E, z/ E,/D,/E,/ | C,/D,/E,/C,/ B,,/^A,,/^G,,/F,,/ B,,E,,F,,F,, | !fermata!B,,,8 | %182
 z8 |[M:3/4] D,2 z2 z2 | A,,2 z2 z2 | D,,2 D,2 G,,2 | A,,2 (3:2:2z2 A,, (3:2:2C,2 A,, | D,2 z2 z2 | %188
 A,,2 z2 z2 | D,,2 D,2 G,,2 | A,,2 (3:2:2z2 A,, (3:2:2C,2 F,, | F,,2 z2 z2 | %192
 G,,2- (3:2:2G,,2 A,, (3:2:2C,2 F,, | (3:2:2G,,2 E,, A,,2 A,2 | B,2 (3:2:2z2 B,, (3:2:2A,,2 G,, | %195
 F,,2 z2 z2 | G,,2- (3:2:2G,,2 A,, (3:2:2B,,2 F,, | G,,2 A,,2 A,,2 | %198
 D,,2 (3:2:2z2 D, (3:2:2F,2 D, | B,,2 z2 z2 | C,2 z2 z2 | D,2 ^G,,2 C,2 | %202
 F,,2 (3:2:2z2 F, (3:2:2D,2 F, | B,,2 z2 z2 | C,2 z2 z2 | D,2 G,,2 ^G,,2 | %206
 F,,2 (3:2:2z2 F, (3:2:2C,2 E, | ^D,2 z2 z2 | G,,2 z2 z2 | =C,2 A,,2 B,,2 | %210
 =C,,2 (3:2:2z2 =C, (3:2:2B,,2 A,, | E,2 z2 z2 | F,,2 z2 G,,2 | A,,2 B,,2 B,,,2 | %214
 E,,2 (3:2:2z2 E,, (3:2:2G,,2 B,, | E,2 z2 D,2 | C,2 z2 A,,2 | D,2 z2 B,,2 | %218
 A,,2 (3:2:2z2 A, (3:2:2E,2 G, | F,2 z2 D,2 | G,2 z2 F,2 | B,,2 z2 E,2 | %222
 A,,2 (3:2:2z2 A,, (3:2:2G,,2 E,, | F,,2 z2 D,2 | G,2 z2 ^A,,2 | B,,2 z2 C,2 | D,2 z2 ^D,2 | %227
 E,2 z2 A,,2 | G,,2 z2 ^G,,2 | A,,2 (3:2:2z2 A, (3:2:2G,2 A, | =C,2 (3:2:2z2 B,, (3:2:2A,,2 G,, | %231
 F,,2 z2 D,,2 | G,,2 z2 E,,2 | ^A,,2 z2 F,,2 | B,,2 z2 D,2 | G,,2 z2 C,,2 | D,,2 z2 B,,2 | %237
 A,,2 (3:2:2z2 F,, (3:2:2G,,2 A,, | D,,2 (3:2:2z2 D, (3:2:2F,2 D, | B,,2 z2 z2 | D,2 z2 z2 | %241
 C,2 z2 C,,2 | !fermata!F,,6 | z6 |[M:2/4] z4 | z4 | z4 | z4 | D,C, B,,B, | A,^G, A,F, | %250
 B,/A,/B,/C/ DB, | CD CB, | A,^G, A,F, | B,,/B,/A,/^G,/ F,/A,/G,/F,/ | ^G,F, G,E, | %255
 A,,/A,/^G,/F,/ ^E,/G,/F,/E,/ | F,A, ^G,F, | ^E,C, F,A,, | D,B,, C,C,, | F,,F, E,F, | D,F, C,F, | %261
 B,,F, F,,F, | B,,F,,/E,,/ F,,B,,/^A,,/ | B,,B,,, B,,,D, | C,/B,,/C,/D,/ E,/D,/C,/B,,/ | %265
 ^A,,/F,/E,/D,/ F,,/E,/D,/C,/ | D,C, D,B,, | E,,/E,/D,/C,/ B,,/D,/C,/B,,/ | C,B,, C,A,, | %269
 D,,/D,/C,/B,,/ ^A,,/C,/B,,/A,,/ | B,,D, C,B,, | ^A,,F,, B,,D, | G,E, F,F,, | B,,D, F,B,, | %274
 E,G, B,E, | A,,C, E,A,, | D,F, A,D, | G,B, G,E, | A,C A,F, | B,D B,G, | C2 z A, | DG, A,A,, | %282
 D,E, F,F,, | B,,2 z C, | D,C, D,B,, | C,/A,/^G,/F,/ B,,/G,/F,/^E,/ | A,,^G,, ^A,,F,, | %287
 B,,B, A,F, | B,/A,/B,/C/ DB, | CD CB, | A,^G, A,F, | B,,/B,/A,/^G,/ F,/A,/G,/F,/ | ^G,F, G,E, | %293
 A,,/A,/^G,/F,/ ^E,/G,/F,/E,/ | F,A, ^G,F, | ^E,C, F,A,, | D,B,, C,C,, | %297
 F,,/F,/E,/D,/ C,/C/B,/^A,/ | z4 | z4 | z4 | z4 | D,C, B,,B, | A,^G, A,F, | B,/A,/B,/C/ DB, | %305
 CD CB, | A,^G, A,F, | B,,/B,/A,/^G,/ F,/A,/G,/F,/ | ^G,F, G,E, | A,,/A,/^G,/F,/ ^E,/G,/F,/E,/ | %310
 F,A, ^G,F, | ^E,C, F,A,, | D,B,, C,C,, | F,,F, E,F, | D,F, C,F, | B,,F, F,,F, | %316
 B,,F,,/E,,/ F,,B,,/^A,,/ | B,,B,,, B,,,D, | C,/B,,/C,/D,/ z2 | ^A,,/F,/E,/D,/ F,,/E,/D,/C,/ | %320
 D,C, D,B,, | E,,/E,/D,/C,/ B,,/D,/C,/B,,/ | C,B,, C,A,, | D,,/D,/C,/B,,/ ^A,,/C,/B,,/A,,/ | %324
 B,,D, C,B,, | ^A,,F,, B,,D, | G,E, F,F,, | B,,D, F,B,, | E,G, B,E, | A,,C, E,A,, | D,F, A,D, | %331
 G,B, G,E, | A,C A,F, | B,D B,G, | C2 z A, | DG, A,A,, | D,E, F,F,, | B,,2 z C, | D,C, D,B,, | %339
 C,/A,/^G,/F,/ B,,/G,/F,/^E,/ | A,,^G,, ^A,,F,, | B,,B, A,F, | B,/A,/B,/C/ DB, | CD CB, | %344
 A,^G, A,F, | B,,/B,/A,/^G,/ F,/A,/G,/F,/ | ^G,F, G,E, | A,,/A,/^G,/F,/ ^E,/G,/F,/E,/ | %348
 F,A, ^G,F, | ^E,C, F,A,, | D,B,, C,C,, | F,,4 | z F, ^A,C | E,^A, CD,/C,/ | D,G, E,F, | %355
 B,,F,, D,,F,, | B,,B, A,G, | F,E, ^D,B,, | E,=C, A,,B,, | E,E,, G,,B,, | E,2 z E,, | %361
 A,,/A,/G,/F,/ E,/G,/F,/E,/ | F,E, F,D, | G,,/G,/F,/E,/ ^D,/F,/E,/D,/ | E,G, F,E, | ^D,B,, E,G,, | %366
 =C,A,, B,,B,,, | E,,E, D,E, | C,E, B,,E, | A,,E, E,,E, | A,,/F,/E,/D,/ E,/D,/C,/B,,/ | %371
 C, B,2 D,/C,/ | D,/A,,/E,/D,/ E,/A,,/F,/E,/ | F,E, D,B,, | E,D, C,B,, | A,,G,, F,,A,, | %376
 D,C, B,,D, | G,F, E,D, | C,B,, ^A,,C, | F,,E, D,C, | B,,C, D,B,, | E,E,, E,2- | E,D, E,/F,/G,- | %383
 G,^A,,/B,,/ C,F,, | B,,G,, E,,F,, | B,,2 z B,, | E,^G, E,C, | F,^A, F,D, | G,B, G,E, | ^A,2 z F, | %390
 B,E, F,F,, | B,,D, F,B,, | E,G, B,E, | A,,C, E,A,, | D,F, A,D, | G,B, A,G, | F,E, ^D,B,, | %397
 E,=C, A,,B,, | E,,2 z F,, | G,,F,, G,,E,, | F,,/D,/C,/B,,/ E,,/C,/B,,/^A,,/ | %401
 D,,/D,/C,/B,,/ C,/B,,/^A,,/^G,,/ | ^A,, G,2 B,,/A,,/ | B,,/F,,/C,/B,,/ C,/F,,/D,/C,/ | %404
 D,F, ^D,B,, | E,,E, D,B,, | E,/D,/E,/F,/ G,E, | F,G, F,E, | D,C, D,B,, | %409
 E,,/E,/D,/C,/ B,,/D,/C,/B,,/ | C,B,, C,A,, | D,,/D,/C,/B,,/ ^A,,/C,/B,,/A,,/ | B,,D, C,B,, | %413
 ^A,,F,, B,,D, | G,E, F,F,, | B,,,4 | z F, ^A,C | E,^A, CD,/C,/ | D,G, E,F, | B,,F,, D,,F,, | %420
 B,,B, A,G, | F,E, ^D,B,, | E,=C, A,,B,, | E,E,, G,,B,, | E,2 z E,, | A,,/A,/G,/F,/ E,/G,/F,/E,/ | %426
 F,E, F,D, | G,,/G,/F,/E,/ ^D,/F,/E,/D,/ | E,G, F,E, | ^D,B,, E,G,, | =C,A,, B,,B,,, | E,,E, D,E, | %432
 C,E, B,,E, | A,,E, E,,E, | A,,/F,/E,/D,/ E,/D,/C,/B,,/ | C, B,2 D,/C,/ | %436
 D,/A,,/E,/D,/ E,/A,,/F,/E,/ | F,E, D,B,, | E,D, C,B,, | A,,G,, F,,A,, | D,C, B,,D, | G,F, E,D, | %442
 C,B,, ^A,,C, | F,,E, D,C, | B,,C, D,B,, | E,E,, E,2- | E,D, E,/F,/G,- | G,^A,,/B,,/ C,F,, | %448
 B,,G,, E,,F,, | B,,2 z B,, | E,^G, E,C, | F,^A, F,D, | G,B, G,E, | ^A,2 z F, | B,E, F,F,, | %455
 B,,D, F,B,, | E,G, B,E, | A,,C, E,A,, | D,F, A,D, | G,B, A,G, | F,E, ^D,B,, | E,=C, A,,B,, | %462
 E,,2 z F,, | G,,F,, G,,E,, | F,,/D,/C,/B,,/ E,,/C,/B,,/^A,,/ | D,,/D,/C,/B,,/ C,/B,,/^A,,/^G,,/ | %466
 ^A,, G,2 B,,/A,,/ | B,,/F,,/C,/B,,/ C,/F,,/D,/C,/ | D,F, ^D,B,, | E,,E, D,B,, | %470
 E,/D,/E,/F,/ G,E, | F,G, F,E, | D,C, D,B,, | E,,/E,/D,/C,/ B,,/D,/C,/B,,/ | C,B,, C,A,, | %475
 D,,/D,/C,/B,,/ ^A,,/C,/B,,/A,,/ | B,,D, C,B,, | ^A,,F,, B,,D, | G,E, F,F,, | B,,,4 |] %480
V:3
 B,/D/F/B/F/D/ B,/D/F/B/F/D/ | B,/E/G/B/G/E/ B,/^D/F/A/G/F/ | G/A/B/e/B/G/ E/G/B/e/B/G/ | %3
 E/^A/c/e/c/A/ E/G/B/e/B/G/ | F/^A/c/e/c/B/ A/c/e/g/B/A/ | B/d/f/b/f/d/ B/d/f/b/f/d/ | %6
 B/e/g/b/g/e/ c/e/f/a/f/d/ | B/d/e/g/f/e/ B/d/e/g/f/e/ | A/B/c/e/d/c/ g/f/e/d/c/B/ | %9
 A/c/e/a/e/c/ d/=f/^g/b/a/g/ | d/e/=f/a/c/B/ c/e/c/A/E/G/ | F/A/d/f/d/A/ F/^A/c/e/c/A/ | %12
 F/^A/B/d/c/B/ c/^e/f/^g/a/f/ | ^e/f/^g/d/c/B/ A/B/c/g/e/f/ | B/d/^e/^g/f/d/ B/d/B/^G/B/e/ | %15
 f/c/^A/F/A/c/ .f3 | B,/D/F/B/F/D/ B,/D/F/B/F/D/ | B,/E/G/B/G/E/ B,/^D/F/A/G/F/ | %18
 G/A/B/e/B/G/ E/G/B/e/B/G/ | E/^A/c/e/c/A/ E/G/B/e/B/G/ | F/^A/c/e/c/B/ A/c/e/g/B/A/ | %21
 B/d/f/b/f/d/ B/d/f/b/f/d/ | B/e/g/b/g/e/ c/e/f/a/f/d/ | B/d/e/g/f/e/ B/d/e/g/f/e/ | %24
 A/B/c/e/d/c/ g/f/e/d/c/B/ | A/c/e/a/e/c/ d/=f/^g/b/a/g/ | d/e/=f/a/c/B/ c/e/c/A/E/G/ | %27
 F/A/d/f/d/A/ F/^A/c/e/c/A/ | F/^A/B/d/c/B/ c/^e/f/^g/a/f/ | ^e/f/^g/d/c/B/ A/B/c/g/e/f/ | %30
 B/d/=f/^g/^f/d/ B/d/B/^G/B/=f/ | f/c/^A/F/A/c/ .f3 | F/^A/c/f/c/A/ F/A/c/e/c/A/ | %33
 F/^A/B/d/B/A/ B/d/f/b/f/e/ | f/a/f/^d/=c/B/ A/B/d/f/e/d/ | B/^d/e/g/e/B/ E/F/G/B/G/E/ | %36
 =C/E/A/=c/B/A/ ^G/B/d/=f/e/d/ | e/^g/a/=g/=f/e/ d/f/e/d/=c/B/ | =c/B/A/^G/A/^d/ e/f/g/e/B/d/ | %39
 e/g/b/g/e/^d/ e/g/e/B/G/F/ | E/F/G/c/G/F/ G/A/B/d/c/B/ | A/B/c/e/c/B/ c/d/e/g/f/e/ | %42
 f/e/d/c/B/d/ g/f/e/d/c/B/ | F/^A/c/e/c/A/ F/A/c/f/c/A/ | F/^A/B/d/c/B/ f/e/d/c/B/A/ | %45
 B/^d/e/g/f/e/ b/f/=d/f/B/d/ | g/B/e/g/e/c/ ^A/c/e/c/A/F/ | d/B/A/G/F/E/ D/G/F/E/D/C/ | %48
 B,/E/G/B/G/E/ C/E/F/A/F/D/ | E/G/=c/e/c/^A/ F/g/f/e/d/^c/ | B/^A/^G/F/E/c/ D/C/D/B/C/A/ | B6 | %52
 F/^A/c/f/c/A/ F/A/c/e/c/A/ | F/^A/B/d/B/A/ B/d/f/b/f/e/ | f/a/f/^d/=c/B/ A/B/d/f/e/d/ | %55
 B/^d/e/g/e/B/ E/F/G/B/G/E/ | =C/E/A/=c/B/A/ ^G/B/d/=f/e/d/ | e/^g/a/=g/=f/e/ d/f/e/d/=c/B/ | %58
 =c/B/A/^G/A/^d/ e/f/g/e/B/d/ | e/g/b/g/e/^d/ e/g/e/B/G/F/ | E/F/G/c/G/F/ G/A/B/d/c/B/ | %61
 A/B/c/e/c/B/ c/d/e/g/f/e/ | f/e/d/c/B/d/ g/f/e/d/c/B/ | F/^A/c/e/c/A/ F/A/c/f/c/A/ | %64
 F/^A/B/d/c/B/ f/e/d/c/B/A/ | B/^d/e/g/f/e/ b/f/=d/f/B/d/ | g/B/e/g/e/c/ ^A/c/e/c/A/F/ | %67
 d/B/A/G/F/E/ D/G/F/E/D/C/ | B,/E/G/B/G/E/ C/E/F/A/F/D/ | E/G/=c/e/c/^A/ F/g/f/e/d/^c/ | %70
 B/^A/^G/F/E/c/ D/C/D/B/C/A/ | B6 | z6 |[M:4/4] B/c/d/B/ cF BB, d2- | d/c/d/f/ e/d/c/e/ d2 z f | %75
 G/F/G/B/ ee eF d2- | dg/f/ e/d/c/B/ ^A/F/G/F/ E/c/F/E/ | DBC^A B/d/B/^G/ ^E/D/C/B,/ | %78
 A,2 z c- c/B/A/^G/ F/E/D/C/ | D/B,/E/C/ FE/D/ E/4D/4E/4D/4C z/ c/^d/^e/ | %80
 f/^e/f/a/ ^g/f/e/f/ g/f/e/^d/ cf | e/4d/4e/4d/4B z d- d/B/^G/^E/ C^e | f>^g a/g/4a/4g/f/ f2 z F- | %83
 F/^D/E/F/ G/^A/B/c/ F2 z c | d/4c/4d/4c/4B ee f/4e/4f/4e/4d/e/ ff | %85
 g/4f/4g/4f/4e/f/ gg a/4g/4a/4g/4f/g/ aA | Bdgc f3 B | e/f/e/d/ c/B/^A/c/ F2 z A | %88
 B>c B/^A/4B/4A/B/ B2 z/ f/e/d/ | c/B/A/B/ =c/B/c/f/ fG z/ d/^c/B/ | %90
 A/G/F/G/ A/G/A/d/ dE z/ B/A/G/ | F/E/D/E/ F/G/A/F/ BCDB | EF/G/ A/B/c/A/ d/c/d/f/ a/f/e/d/ | %93
 c/d/e/^g/ a/c/e/^d/ e/d/e/=g/ b/g/f/e/ | d/e/f/^a/ b/d/f/^e/ f/e/f/=a/ c'/a/^g/f/ | %95
 ^e/f/^g/e/ c2- c/F/^G/A/ B2- | B/d/c/B/ A/c/f/e/ d/c/B/A/ B/A/^G/A/ | F2 z2 B/A/B/d/ gc | %98
 d/4c/4d/4c/4B z2 E/D/E/G/ c/B/c/e/ | c/f/d/B/ cF BB, d2- | d/c/d/f/ e/d/c/e/ d2 z f | %101
 G/F/G/B/ ee eF d2- | dg/f/ e/d/c/B/ ^A/F/G/F/ E/c/F/E/ | DBC^A B/=A/B/e/ g/e/^d/e/ | %104
 A/G/A/^d/ f/d/c/d/ G/F/G/B/ e/=c/B/c/ | ^A2 z B/A/ B>c B/A/4B/4A/B/ | Bf/d/ B/c/4d/4c/B/ B4- | %107
 B/^A/c/e/ g/f/4e/4f/c/ d>e d/c/f | e/4d/4e/4d/4B z f- f/e/f/g/ a/g/f/a/ | g^ga^a b2 z2 | %110
 z4 z d/B/ ^G/A/4B/4A/G/ | ^G4- G F2 ^E | F/^G/A/F/ GC FF, A2- | %113
 A/^G/A/c/ B/A/G/B/ A/c/A/F/ ^D/=c/B/A/ | G/B/G/E/ C/B/A/G/ F2 F/E/F/B/ | %115
 f/4e/4f/4e/4f/4e/4f/4e/4 f/4e/4f/4e/4f/4e/4f/4e/4 d2 D/C/D/G/ | %116
 d/4=c/4d/4c/4d/4c/4d/4c/4 d/4c/4d/4c/4d/4c/4d/4c/4 B2 B,/A,/B,/E/ | %117
 B/4A/4B/4A/4B/4A/4B/4A/4 B/4A/4B/4A/4B/4A/4B/4A/4 G2 z B- | B/A/G/F/ E/D/=C/B,/ C/A,/D/B,/ ED/C/ | %119
 D/4=C/4D/4C/4B, z/ B/c/^d/ e/d/e/g/ f/e/d/e/ | f/e/^d/c/ Be =cA z ^B- | B/A/F/^D/ B,^d e>f g>e | %122
 e8- | e/^d/e/a/ =c2- c/B/c/d/ fA | G>F G>E E/B/c/^d/ e/f/g/e/ | c/d/e/c/ Ad- dc/d/ e2- | %126
 e>f e/d/c/d/ c/g/e/c/ ^A/G/F/E/ | D/E/F/d/ B/^A/4B/4A/B/ B2 z/ B/c/d/ | GBce A/c/d/e/ f2- | %129
 fe/d/ c/d/e/c/ ^Ad/c/ B/c/d/B/ | GB e2- e^A g2- | g/f/e/d/ f/e/d/c/ d/c/d/f/ bb | %132
 bc a2 B/A/B/d/ gg | gA f2 G/F/G/B/ ee | eF d2- db/a/ g/f/e/d/ | c/B/A/B/ c/d/e/G/ F2 z a- | %136
 a/g/f/e/ d/c/B/A/ B/^G/c/A/ dc/B/ | c/4B/4c/4B/4A z/ A/B/c/ d/c/d/f/ e/d/c/d/ | %138
 e/d/c/B/ Ad c/4B/4c/4B/4G z b- | b/g/e/c/ Ac d>e f/4e/4f/4e/4f/4e/4d/4e/4 | %140
 f2- f/e/d/c/ B/A/^G/A/ B/d/c/B/ | A/B/c/A/ BE AA, c2- | c/^B/c/e/ ^d/c/B/d/ c2 z e | %143
 F/E/F/A/ dd dE c2- | cf/e/ d/c/B/A/ ^G/E/F/E/ D/B/E/D/ | CAB,^G C/B,/C/E/ AC | %146
 B,A^GE D/C/D/F/ BD | CBAF E/^D/E/^G/ cE | ^Dc ^B/^G/^A/B/ c2- c/e/^d/c/ | ^B/c/^d/^G/ c4 B2 | %150
 c2 E/D/E/A/ e/4d/4e/4d/4e/4d/4e/4d/4 e/4d/4e/4d/4e/4d/4e/4d/4 | %151
 c2 C/B,/C/F/ c/4B/4c/4B/4c/4B/4c/4B/4 c/4B/4c/4B/4c/4B/4c/4B/4 | A2 z2 B/A/B/d/ gc | %153
 d/4c/4d/4c/4B z2 E/D/E/^A/ c/B/c/e/ | d/4c/4d/4c/4B/c/ d2- d>e d/c/B/c/ | %155
 B/^D/E/F/ ^G/A/B/G/ ^E/F/G/E/ CF- | F^E/F/ ^GG A/4G/4A/4G/4F BB | %157
 c/4B/4c/4B/4A/B/ cc d/4c/4d/4c/4B/c/ dd | e/4d/4e/4d/4c/d/ eE FAd^G | c3 F B/c/B/A/ ^G/F/^E/G/ | %160
 C2 z ^e f>^g f/e/4f/4e/f/ | f2 z2 z d/B/ ^G/A/4B/4A/G/ | ^G4- G F2 ^E | F/^G/A/F/ GC FF, A2- | %164
 A/^G/A/c/ B/A/G/B/ A/G/A/B/ c/d/e/c/ | df/d/ B/c/4d/4c/B/ B4- | B/^A/c/e/ g/f/4e/4f/c/ d>e d/c/f | %167
 e/4d/4e/4d/4B z f- f/e/f/g/ a/g/f/a/ | g^ga^a b4- | ba/^g/ a2- a/b/^d/e/ f2- | %170
 f/b/g/e/ c2- c/f/d/B/ ^G2- | G/^E/F/^A/ d/B/A/B/ =G/F/G/B/ e/c/B/c/ | %172
 ^A/^G/A/c/ f/d/c/d/ B/A/B/d/ g/e/d/e/ | f/b/f/e/ d/b/g/f/ e/b/e/d/ c/g/f/e/ | %174
 d/f/e- e/g/f/e/ d/e/d/c/ B/A/G/F/ | G/E/A/F/ BA/G/ A/4G/4A/4G/4F z/ F/^G/^A/ | %176
 B/^A/B/d/ c/B/A/B/ c/B/A/^G/ FB | GE z G- G/E/C/^A,/ F,^A | B>c c>B B4- | B4- B/^A/B/e/ g2- | %180
 g/f/g/^a/ c'e d>c d/4c/4d/4c/4d/4c/4B/ | !fermata!B8 | z8 |[M:3/4] (3DA,F (3DA,F (3DA,F | %184
 (3EA,G (3ECA (3ECB | (3AdG (3AdF (3EGB- | (3BGE (3CEC (3A,CF, | (3F,A,C (3DA,F (3DA,F | %188
 (3EA,G (3ECA (3ECB | (3AdG (3AdF (3EGB- | (3BGE (3CEC (3A,CF, | (3AFd (3AFd (3AF=c | %192
 (3AF=c (3BeG (3FDA | (3Bcd- (3dce (3ABG | (3FDE (3FGA (3Bdc | (3dDF (3AFd (3AFd | %196
 (3DAG (3BAF (3FGA | (3Bcd (3cde (3Adc | (3dAF (3DFA (3dAF | (3Dfc (3dfA (3Bdf | %200
 (3egd (3egA (3ceg | (3fAB (3dAB (3^eAB | (3fdB (3cf^A (3Bfc | (3dfc (3df^A (3Bcd- | %204
 (3dAB (3ced (3efg- | (3gef (3ecd (3c^AB | (3cfB (3cfc (3^AcF | (3BFG (3AB=c- (3cAF | %208
 (3^D=cB (3AGF (3EFD | (3EFG (3A^de (3F=cB | (3AFG (3Ee^d (3egf | (3g^de (3=cde (3g=de | %212
 (3Agf (3e^d=c (3BAG | (3Afe (3^dfB (3=cBA | (3GeB (3GBG (3EGF | (3GBG (3EB,F (3GEB | %216
 (3eae (3cAd (3eca- | (3adc (3def (3efd | (3cfc (3Ace (3gfe | (3afd (3AB=c- (3cBA | %220
 (3Bdg (3cea (3dAF | (3DEF (3ECD (3^GCD | (3AE^G (3AEC (3A,CE- | (3EDF (3AdA (3FAF | %224
 (3DGF (3GAB (3c^AG | (3FB^A (3Bcd (3ec=A- | (3Adc (3def- (6:4:4f/g/a=c | (3Be^d (3efg- (3gef | %228
 (3gd=c (3dBA (3BDC | (3D=F^G (3AE=G (3BAG | (3FAF (3DEF (3GAB | (3=cAF (3D^cA (3FAF | %232
 (3DGF (3GAB (3ced | (3ec^A (3Fec (3AcA | (3FB^A (3Bcd (3egf | (3gdf (3gab (3aec | %236
 (3Adc (3def (3efd | (3gef (3cdA (3Bec | (3dfd (3Adc (3dAF | D2 z f/e/ d/c/B/^A/ | %240
 B2 z b/a/ ^g/f/^e/g/ | B/^G/^E/F/ G/A/B/c/ d/B/f/^e/ | !fermata!f6 | z6 |[M:2/4] BF/E/ FB/^A/ | %245
 BB, B,d | c/B/c/d/ e/d/c/B/ | ^A/^G/A/B/ c/B/A/G/ | F/f/e/d/ F/e/d/c/ | F/d/c/B/ F/c/B/A/ | %250
 d/c/B/A/ ^G/F/^E/F/ | dc z2 | z/ F/A/c/ f/c/a- | a/d/c/B/ d/c/B/A/ | d/E/^G/B/ d/B/^g- | %255
 g/c/B/A/ c/B/A/^G/ | c/A/^G/F/ d/c/B/A/ | B/^G/F/^E/ c/B/A/G/ | F/^E/F/d/ c/B/A/^G/ | %259
 A/f/e/d/ ^A/e/d/c/ | B/d/c/B/ ^A/c/B/A/ | B/F/E/D/ ^A/E/D/C/ | B2- B/^d/e/f/ | G/e/d/c/ F/d/c/B/ | %264
 ^A/c/g- g/f/e/d/ | c/d/c/B/ c/^A/B/c/ | Ff/e/ fG/F/ | GB e2- | ee/d/ eF/E/ | FA d2- | %270
 dE/D/ Ec/B/ | cD/C/ DB/^A/ | BD C^A | B4- | B/e/d/c/ ^G/d/c/B/ | ce a2- | a/d/=c/B/ F/c/B/A/ | %277
 B/A/G/F/ E/D/C/B,/ | c/B/A/G/ F/E/D/C/ | d/c/B/A/ G/F/E/D/ | e/d/c/B/ A/G/F/E/ | %281
 F/f/e/d/ G/e/d/c/ | F/d/c/B/ ^A/c/B/A/ | B/d/c/B/ A/c/B/A/ | ^G/B/A/G/ F/A/G/F/ | ^E^G c2- | %286
 c/f/e/d/ F/e/d/c/ | F/d/c/B/ F/c/B/A/ | d/c/B/A/ ^G/F/^E/F/ | dc z2 | z/ F/A/c/ f/c/a- | %291
 a/d/c/B/ d/c/B/A/ | d/E/^G/B/ d/B/^g- | g/c/B/A/ c/B/A/^G/ | c/A/^G/F/ d/c/B/A/ | %295
 B/^G/F/^E/ c/B/A/G/ | F/^E/F/d/ c/B/A/^G/ | F4 | BF/E/ FB/^A/ | BB, B,d | c/B/c/d/ e/d/c/B/ | %301
 ^A/^G/A/B/ c/B/A/G/ | F/f/e/d/ F/e/d/c/ | F/d/c/B/ F/c/B/A/ | d/c/B/A/ ^G/F/^E/F/ | dc z2 | %306
 z/ F/A/c/ f/c/a- | a/d/c/B/ d/c/B/A/ | d/E/^G/B/ d/B/^g- | g/c/B/A/ c/B/A/^G/ | %310
 c/A/^G/F/ d/c/B/A/ | B/^G/F/^E/ c/B/A/G/ | F/^E/F/d/ c/B/A/^G/ | A/f/e/d/ ^A/e/d/c/ | %314
 B/d/c/B/ ^A/c/B/A/ | B/F/E/D/ ^A/E/D/C/ | B2- B/^d/e/f/ | G/e/d/c/ F/d/c/B/ | ^A/c/g z2 | %319
 c/d/c/B/ c/^A/B/c/ | Ff/e/ fG/F/ | GB e2- | ee/d/ eF/E/ | FA d2- | dE/D/ Ec/B/ | cD/C/ DB/^A/ | %326
 BD C^A | B4- | B/e/d/c/ ^G/d/c/B/ | ce a2- | a/d/=c/B/ F/c/B/A/ | B/A/G/F/ E/D/C/B,/ | %332
 c/B/A/G/ F/E/D/C/ | d/c/B/A/ G/F/E/D/ | e/d/c/B/ A/G/F/E/ | F/f/e/d/ G/e/d/c/ | %336
 F/d/c/B/ ^A/c/B/A/ | B/d/c/B/ A/c/B/A/ | ^G/B/A/G/ F/A/G/F/ | ^E^G c2- | c/f/e/d/ F/e/d/c/ | %341
 F/d/c/B/ F/c/B/A/ | d/c/B/A/ ^G/F/^E/F/ | dc z2 | z/ F/A/c/ f/c/a- | a/d/c/B/ d/c/B/A/ | %346
 d/E/^G/B/ d/B/^g- | g/c/B/A/ c/B/A/^G/ | c/A/^G/F/ d/c/B/A/ | B/^G/F/^E/ c/B/A/G/ | %350
 F/^E/F/d/ c/B/A/^G/ | F4 | z4 | z4 | z4 | z4 | B,/G/F/E/ F/E/^D/C/ | ^D =c2 E/D/ | %358
 E/B,/F/E/ F/B,/G/F/ | G/A/G/F/ E/G/F/A/ | G/E/G/B/ e/B/g- | g/=c/B/A/ c/B/A/G/ | %362
 =c/D/F/A/ c/A/f- | f/B/A/G/ B/A/G/F/ | B/G/F/E/ =c/B/A/G/ | A/F/E/^D/ B/A/G/F/ | %366
 E/^D/E/=c/ B/A/G/F/ | G/e/d/c/ ^G/d/c/B/ | A/c/B/A/ ^G/B/A/G/ | A/E/D/C/ ^G/D/C/B,/ | %370
 C/B,/C/D/ C/D/E/D/ | E/F/E/F/ G/F/G/A/ | F d2 c | d/a/g/f/ b/a/g/f/ | g4- | g/g/f/e/ a/g/f/e/ | %376
 f4- | f/F/B/^A/ c/B/d/c/ | e4- | e/g/f/e/ c'/g/f/e/ | d/f/e/d/ b/f/e/d/ | c/e/d/c/ g/d/c/B/ | %382
 f/d/c/B/ c/B/^A/^G/ | ^A g2 B/A/ | B/F/c/B/ c/F/d/c/ | dF B2- | B^G/F/ Ge- | e^A/^G/ Af- | %388
 fB/^A/ Bg- | gf/e/ d/c/B/^A/ | f>g d/c/4d/4c/B/ | B/b/a/g/ ^d/a/g/f/ | gB e2- | %393
 e/a/g/f/ c/g/f/e/ | fA d2- | d/c/d/e/ ^d/e/f/e/ | f/g/f/g/ a/g/a/b/ | g e2 ^d | %398
 e/g/f/e/ d/f/e/d/ | c/e/d/c/ B/d/c/B/ | ^Ac f2- | f4- | fe/d/ c/B/c- | c/d/e/f/ gf/e/ | %404
 fF/E/ FB/^A/ | BB, B,d | c/B/c/d/ e/d/c/B/ | ^A/^G/A/B/ c/B/A/G/ | Ff/e/ fG/F/ | GB e2- | %410
 ee/d/ eF/E/ | FA d2- | dE/D/ Ec/B/ | cD/C/ DB/^A/ | BD C^A | B4 | z4 | z4 | z4 | z4 | %420
 B,/G/F/E/ F/E/^D/C/ | ^D =c2 E/D/ | E/B,/F/E/ F/B,/G/F/ | G/A/G/F/ E/G/F/A/ | G/E/G/B/ e/B/g- | %425
 g/=c/B/A/ c/B/A/G/ | =c/D/F/A/ c/A/f- | f/B/A/G/ B/A/G/F/ | B/G/F/E/ =c/B/A/G/ | %429
 A/F/E/^D/ B/A/G/F/ | E/^D/E/=c/ B/A/G/F/ | G/e/d/c/ ^G/d/c/B/ | A/c/B/A/ ^G/B/A/G/ | %433
 A/E/D/C/ ^G/D/C/B,/ | C/B,/C/D/ C/D/E/D/ | E/F/E/F/ G/F/G/A/ | F d2 c | d/a/g/f/ b/a/g/f/ | g4- | %439
 g/g/f/e/ a/g/f/e/ | f4- | f/F/B/^A/ c/B/d/c/ | e4- | e/g/f/e/ c'/g/f/e/ | d/f/e/d/ b/f/e/d/ | %445
 c/e/d/c/ g/d/c/B/ | f/d/c/B/ c/B/^A/^G/ | ^A g2 B/A/ | B/F/c/B/ c/F/d/c/ | dF B2- | B^G/F/ Ge- | %451
 e^A/^G/ Af- | fB/^A/ Bg- | gf/e/ d/c/B/^A/ | f>g d/c/4d/4c/B/ | B/b/a/g/ ^d/a/g/f/ | gB e2- | %457
 e/a/g/f/ c/g/f/e/ | fA d2- | d/c/d/e/ ^d/e/f/e/ | f/g/f/g/ a/g/a/b/ | g e2 ^d | %462
 e/g/f/e/ d/f/e/d/ | c/e/d/c/ B/d/c/B/ | ^Ac f2- | f4- | fe/d/ c/B/c- | c/d/e/f/ gf/e/ | %468
 fF/E/ FB/^A/ | BB, B,d | c/B/c/d/ e/d/c/B/ | ^A/^G/A/B/ c/B/A/G/ | Ff/e/ fG/F/ | GB e2- | %474
 ee/d/ eF/E/ | FA d2- | dE/D/ Ec/B/ | cD/C/ DB/^A/ | BD C^A | B4 |] %480
V:4
 B,,D,F, A,,D,F, | G,,B,,E, F,,A,,^D, | E,,G,,B,, D,,G,,B,, | C,,E,,G,, B,,,E,,G,, | %4
 ^A,,E,G, F,,C,F, | B,,D,F, A,,D,F, | G,,B,,E, F,,A,,D, | E,G,B, D,G,B, | C,E,G, D,E,F, | %9
 G,,C,E, ^G,,B,,D, | A,,D,E, A,,C,G, | D,F,A, C,F,^A, | B,,D,F, A,,C,F, | ^G,,B,,D, F,,A,,D, | %14
 ^E,,^G,,B,, C,,G,,C, | F,,3- F,,/^A,,/C,/E,/C,/A,,/ | B,,D,F, A,,D,F, | G,,B,,E, F,,A,,^D, | %18
 E,,G,,B,, D,,G,,B,, | C,,E,,G,, B,,,E,,G,, | ^A,,E,G, F,,C,F, | B,,D,F, A,,D,F, | %22
 G,,B,,E, F,,A,,D, | E,G,B, D,G,B, | C,E,G, D,E,F, | G,,C,E, ^G,,B,,D, | A,,D,E, A,,C,G, | %27
 D,F,A, C,F,^A, | B,,D,F, A,,C,F, | ^G,,B,,D, F,,A,,D, | ^E,,^G,,B,, C,,G,,C, | F,,6 | %32
 F,,^A,,C, F,^A,[K:treble]C | B,DF F,B,D |[K:bass] ^D,F,A, B,,F,B, | E,,G,,B,, G,,B,,E, | %36
 A,,E,A, B,,D,^G, | =C,E,A, B,,D,G, | A,,=C,F, B,,E,B, | E,,G,,B,, G,,B,,E, | A,,C,A, B,,D,G, | %41
 C,E,G, A,,C,A, | D,F,B, E,G,C | F,^A,C E,A,C | D,F,B, B,,D,F, | G,,B,,E, F,,B,,D, | %46
 E,,B,,C, F,,^A,,F, | B,,D,F, A,,D,F, | G,,B,,C, F,,A,,D, | E,,G,,E, D,,F,,B,, | %50
 C,,B,,^A,, B,,D,,F,, | B,,/D,/B,,/F,,/D,,/F,,/ B,,,3 | F,,^A,,C, F,^A,[K:treble]C | B,DF F,B,D | %54
[K:bass] ^D,F,A, B,,F,B, | E,,G,,B,, G,,B,,E, | A,,E,A, B,,D,^G, | =C,E,A, B,,D,G, | %58
 A,,=C,F, B,,E,B, | E,,G,,B,, G,,B,,E, | A,,C,A, B,,D,G, | C,E,G, A,,C,A, | D,F,B, E,G,C | %63
 F,^A,C E,A,C | D,F,B, B,,D,F, | G,,B,,E, F,,B,,D, | E,,B,,C, F,,^A,,F, | B,,D,F, A,,D,F, | %68
 G,,B,,C, F,,A,,D, | E,,G,,E, D,,F,,B,, | C,,B,,^A,, B,,D,,F,, | B,,/D,/B,,/F,,/D,,/F,,/ B,,,3 | %72
 z6 |[M:4/4] B,2 A,2 G,2 z/ F,/E,/D,/ | E,F,G,A, D,/A,/B,/C/ D2- | %75
 DC/B,/ C/D/C/B,/ ^A,F, z/ B,,/C,/D,/ | E,/D,/E,/F,/ G,E, F,2 z/ E,/D,/C,/ | %77
 B,,/A,,/G,,/F,,/ E,,F,, B,,,B,,C,^E, | F,2 E,2 D,2 z/ C,/B,,/A,,/ | %79
 B,,C,D,E, A,,/E,/F,/^G,/ A,2- | A,^G,/F,/ G,/A,/G,/F,/ ^E,C, z/ F,/G,/A,/ | %81
 B,/A,/B,/C/ DB, C2 z/ B,/A,/^G,/ | F,/E,/D,/C,/ B,,C, F,,A,,B,,^D, | E,D,C,B,, ^A,,C,F,,A,, | %84
 B,,/C,/D,/B,,/ C,F,, B,,B,,, D,2- | D,/C,/D,/F,/ E,/D,/C,/E,/ D,2 z F, | %86
 G,,/F,,/G,,/B,,/ E,E, E,F,, D,2- | D,G,/F,/ E,/D,/C,/B,,/ ^A,,/F,,/G,,/F,,/ E,,/C,/F,,/E,,/ | %88
 D,,G,,C,,F,, B,,,C,,D,,E,, | F,,E,,D,,F,, G,,A,,B,,C, | D,C,B,,D, E,F,G,A, | B,CB,A, G,A,B,G, | %92
 A,G,F,E, D,E,F,G, | A,A,, z/ A,/G,/F,/ E,F,G,A, | B,B,, z/ B,/A,/^G,/ F,G,A,B, | CB,CA, DCDB, | %96
 CC,D,A,, B,,^G,,C,C,, | F,/E,/F,/A,/ DF, E,DCE, | D,/C,/D,/F,/ B,D, C,B,^A,F, | %99
 B,,2 A,,2 G,,2 z/ F,,/E,,/D,,/ | E,,F,,G,,A,, D,,/A,,/B,,/C,/ D,2- | %101
 D,C,/B,,/ C,/D,/C,/B,,/ ^A,,F,, z/ B,,/C,/D,/ | E,/D,/E,/F,/ G,E, F,2 z/ E,/D,/C,/ | %103
 B,,/A,,/G,,/F,,/ E,,F,, G,,G, z G,, | F,,F, z F,, E,,E, z/ E,/D,/E,/ | %105
 C,/D,/E,/C,/ B,,/^A,,/^G,,/F,,/ B,,E,,F,,F,, | B,,,B,,/C,/ D,^D, E,C,/=D,/ E,^E, | %107
 F,F,/^G,/ A,^A, B,E,F,F,, | B,,B,^A,=A, ^G,=G,F,B, | E,D,/C,/ F,F,, B,,^G,^E,C, | %110
 F,F,,/^G,,/ A,,^A,, B,,G,,/=A,,/ B,,^B,, | C,C,/^D,/ E,^E, F,B,,C,C,, | F,,F,^E,=E, ^D,=D,C,F, | %113
 B,,A,,/^G,,/ C,C,, F,,F,B,,^D, | E,,E,A,,C, D,/C,/D,/F,/ B,D, | C,B,A,C, B,,/A,,/B,,/D,/ G,B,, | %116
 A,,G,F,D, G,,/F,,/G,,/B,,/ E,G,, | F,,E,^D,B,, E,,E,D,=D, | =C,2 z/ B,,/A,,/G,,/ A,,B,,C,D, | %119
 G,,/D,/E,/F,/ G,2- G,F,/E,/ F,/G,/F,/E,/ | ^D,B,, z/ E,/F,/G,/ A,/G,/A,/B,/ =CA, | %121
 B,2 z/ A,/G,/F,/ E,/D,/=C,/B,,/ A,,B,, | =C,=C z C, B,,B, z B,, | %123
 A,,A, z/ A,/G,/A,/ F,/G,/A,/F,/ E,/^D,/C,/B,,/ | E,A,,B,,B,,, E,,2 z2 | A,/B,/C/A,/ DD, A,A,, z2 | %126
 F,/^G,/^A,/F,/ B,B,, F,F,, z2 | B,/C/D/B,/ CF, B,B,, D2- | D/C/D/F/ E/D/C/E/ D2 z F | %129
 G,/F,/G,/B,/ EE EF, D2- | DG/F/ E/D/C/B,/ ^A,/F,/G,/F,/ E,/C/F,/E,/ | D,G,C,F, B,,C,D,E, | %132
 F,E,D,F, G,A,B,C | DCB,D E,F,G,A, | B,CB,A, G,A,B,G, | A,G,F,E, D,2 C,2 | %136
 B,,2 z/ A,,/B,,/C,/ D,C,B,,C, | F,,/C,/D,/E,/ F,2- F,E,/D,/ E,/F,/E,/D,/ | %138
 C,A,, z/ D,/E,/F,/ G,/F,/G,/A,/ B,G, | A,2 z/ G,/F,/E,/ D,/C,/B,,/A,,/ G,,A,, | %140
 D,,F,/E,/ D,/C,/B,,/A,,/ ^G,,/E,/F,/E,/ D,/B,/E,/D,/ | C, A,2 ^G, F,/^E,/F, z/ =E,/F,/G,/ | %142
 A,^G,F,G, C,/G,/A,/B,/ C2- | CB,/A,/ B,/C/B,/A,/ ^G,E, z/ A,,/B,,/C,/ | %144
 D,/C,/D,/E,/ F,D, E,2 z/ D,/C,/B,,/ | A,,/^G,,/F,,/E,,/ D,,E,, A,,B,,C,D, | %146
 E,E,, z/ E,/D,/C,/ B,,C,D,E, | F,F,, z/ F,/E,/^D,/ C,D,E,F, | ^G,F,G,E, A,G,A,F, | %149
 ^G,F,/G,/ A,E, F,^D,G,^G,, | C,/B,,/C,/E,/ A,C, B,,A,^G,B,, | A,,/^G,,/A,,/C,/ F,A,, G,,F,^E,C, | %152
 F,,/^E,,/F,,/A,,/ D,F,, =E,,D,C,E,, | D,,/C,,/D,,/F,,/ B,,D,, C,,B,,^A,,F,, | %154
 B,,B,,, z2 E,/F,/^G,/E,/ A,A,, | E,E,, z2 C,/^D,/^E,/C,/ F,F,, | C,C,, z2 F,/^G,/A,/F,/ G,C, | %157
 F,F,, A,2- A,/^G,/A,/C/ B,/A,/G,/B,/ | A,2 z C D,/C,/D,/F,/ B,B, | %159
 B,C, A,2- A,D/C/ B,/A,/^G,/F,/ | ^E,/C,/D,/C,/ B,,/^G,/C,/B,,/ A,,D,^G,,C, | %161
 F,,F,/^G,/ A,^A, B,G,/=A,/ B,^B, | CC,/^D,/ E,^E, F,B,,C,C,, | F,,F,^E,=E, ^D,=D,C,F, | %164
 B,,A,,/^G,,/ C,C,, F,,F,/^G,/ A,^A, | B,B,,/C,/ D,^D, E,C,/=D,/ E,^E, | %166
 F,F,,/^G,,/ A,,^A,, B,,E,F,F,, | B,,B,^A,=A, ^G,=G,F,B, | E,D,/C,/ F,F,, B,,B,E,^G, | %169
 A,,A,D,F, G,,G,^D,B,, | E,,E,^A,,F,, B,,,B,,^E,,C,, | F,,8- | F,,8- | F,,6- F,,F, | %174
 G,^G,A,^A, B,2 z/ F,/E,/D,/ | E,F,G,A, D,/A,/B,/C/ D2- | DC/B,/ C/D/C/B,/ ^A,F, z/ B,,/C,/D,/ | %177
 E,/D,/E,/F,/ G,E, F,2 z/ E,/D,/C,/ | B,,/A,,/G,,/F,,/ E,,F,, G,,G, z G,, | %179
 F,,F, z F,, E,,E, z/ E,/D,/E,/ | C,/D,/E,/C,/ B,,/^A,,/^G,,/F,,/ B,,E,,F,,F,, | !fermata!B,,,8 | %182
 z8 |[M:3/4] D,2 z2 z2 | A,,2 z2 z2 | D,,2 D,2 G,,2 | A,,2 (3:2:2z2 A,, (3:2:2C,2 A,, | D,2 z2 z2 | %188
 A,,2 z2 z2 | D,,2 D,2 G,,2 | A,,2 (3:2:2z2 A,, (3:2:2C,2 F,, | F,,2 z2 z2 | %192
 G,,2- (3:2:2G,,2 A,, (3:2:2C,2 F,, | (3:2:2G,,2 E,, A,,2 A,2 | B,2 (3:2:2z2 B,, (3:2:2A,,2 G,, | %195
 F,,2 z2 z2 | G,,2- (3:2:2G,,2 A,, (3:2:2B,,2 F,, | G,,2 A,,2 A,,2 | %198
 D,,2 (3:2:2z2 D, (3:2:2F,2 D, | B,,2 z2 z2 | C,2 z2 z2 | D,2 ^G,,2 C,2 | %202
 F,,2 (3:2:2z2 F, (3:2:2D,2 F, | B,,2 z2 z2 | C,2 z2 z2 | D,2 G,,2 ^G,,2 | %206
 F,,2 (3:2:2z2 F, (3:2:2C,2 E, | ^D,2 z2 z2 | G,,2 z2 z2 | =C,2 A,,2 B,,2 | %210
 =C,,2 (3:2:2z2 =C, (3:2:2B,,2 A,, | E,2 z2 z2 | F,,2 z2 G,,2 | A,,2 B,,2 B,,,2 | %214
 E,,2 (3:2:2z2 E,, (3:2:2G,,2 B,, | E,2 z2 D,2 | C,2 z2 A,,2 | D,2 z2 B,,2 | %218
 A,,2 (3:2:2z2 A, (3:2:2E,2 G, | F,2 z2 D,2 | G,2 z2 F,2 | B,,2 z2 E,2 | %222
 A,,2 (3:2:2z2 A,, (3:2:2G,,2 E,, | F,,2 z2 D,2 | G,2 z2 ^A,,2 | B,,2 z2 C,2 | D,2 z2 ^D,2 | %227
 E,2 z2 A,,2 | G,,2 z2 ^G,,2 | A,,2 (3:2:2z2 A, (3:2:2G,2 A, | =C,2 (3:2:2z2 B,, (3:2:2A,,2 G,, | %231
 F,,2 z2 D,,2 | G,,2 z2 E,,2 | ^A,,2 z2 F,,2 | B,,2 z2 D,2 | G,,2 z2 C,,2 | D,,2 z2 B,,2 | %237
 A,,2 (3:2:2z2 F,, (3:2:2G,,2 A,, | D,,2 (3:2:2z2 D, (3:2:2F,2 D, | B,,2 z2 z2 | D,2 z2 z2 | %241
 C,2 z2 C,,2 | !fermata!F,,6 | z6 |[M:2/4] B,C DB, | G,/F,/G,/A,/ B,/A,/G,/F,/ | %246
 E,/D,/E,/F,/ G,E, | F,G, F,E, | D,C, B,,B, | A,^G, A,F, | B,/A,/B,/C/ DB, | CD CB, | A,^G, A,F, | %253
 B,,/B,/A,/^G,/ F,/A,/G,/F,/ | ^G,F, G,E, | A,,/A,/^G,/F,/ ^E,/G,/F,/E,/ | F,A, ^G,F, | %257
 ^E,C, F,A,, | D,B,, C,C,, | F,,F, E,F, | D,F, C,F, | B,,F, F,,F, | B,,F,,/E,,/ F,,B,,/^A,,/ | %263
 B,,B,,, B,,,D, | C,/B,,/C,/D,/ E,/D,/C,/B,,/ | ^A,,/F,/E,/D,/ F,,/E,/D,/C,/ | D,C, D,B,, | %267
 E,,/E,/D,/C,/ B,,/D,/C,/B,,/ | C,B,, C,A,, | D,,/D,/C,/B,,/ ^A,,/C,/B,,/A,,/ | B,,D, C,B,, | %271
 ^A,,F,, B,,D, | G,E, F,F,, | B,,D, F,B,, | E,G, B,E, | A,,C, E,A,, | D,F, A,D, | G,B, G,E, | %278
 A,C A,F, | B,D B,G, | C2 z A, | DG, A,A,, | D,E, F,F,, | B,,2 z C, | D,C, D,B,, | %285
 C,/A,/^G,/F,/ B,,/G,/F,/^E,/ | A,,^G,, ^A,,F,, | B,,B, A,F, | B,/A,/B,/C/ DB, | CD CB, | %290
 A,^G, A,F, | B,,/B,/A,/^G,/ F,/A,/G,/F,/ | ^G,F, G,E, | A,,/A,/^G,/F,/ ^E,/G,/F,/E,/ | %294
 F,A, ^G,F, | ^E,C, F,A,, | D,B,, C,C,, | F,,/F,/E,/D,/ C,/C/B,/^A,/ | B,C DB, | %299
 G,/F,/G,/A,/ B,/A,/G,/F,/ | E,/D,/E,/F,/ G,E, | F,G, F,E, | D,C, B,,B, | A,^G, A,F, | %304
 B,/A,/B,/C/ DB, | CD CB, | A,^G, A,F, | B,,/B,/A,/^G,/ F,/A,/G,/F,/ | ^G,F, G,E, | %309
 A,,/A,/^G,/F,/ ^E,/G,/F,/E,/ | F,A, ^G,F, | ^E,C, F,A,, | D,B,, C,C,, | F,,F, E,F, | D,F, C,F, | %315
 B,,F, F,,F, | B,,F,,/E,,/ F,,B,,/^A,,/ | B,,B,,, B,,,D, | C,/B,,/C,/D,/ z2 | %319
 ^A,,/F,/E,/D,/ F,,/E,/D,/C,/ | D,C, D,B,, | E,,/E,/D,/C,/ B,,/D,/C,/B,,/ | C,B,, C,A,, | %323
 D,,/D,/C,/B,,/ ^A,,/C,/B,,/A,,/ | B,,D, C,B,, | ^A,,F,, B,,D, | G,E, F,F,, | B,,D, F,B,, | %328
 E,G, B,E, | A,,C, E,A,, | D,F, A,D, | G,B, G,E, | A,C A,F, | B,D B,G, | C2 z A, | DG, A,A,, | %336
 D,E, F,F,, | B,,2 z C, | D,C, D,B,, | C,/A,/^G,/F,/ B,,/G,/F,/^E,/ | A,,^G,, ^A,,F,, | %341
 B,,B, A,F, | B,/A,/B,/C/ DB, | CD CB, | A,^G, A,F, | B,,/B,/A,/^G,/ F,/A,/G,/F,/ | ^G,F, G,E, | %347
 A,,/A,/^G,/F,/ ^E,/G,/F,/E,/ | F,A, ^G,F, | ^E,C, F,A,, | D,B,, C,C,, | F,,4 | z F, ^A,C | %353
 E,^A, CD,/C,/ | D,G, E,F, | B,,F,, D,,F,, | B,,B, A,G, | F,E, ^D,B,, | E,=C, A,,B,, | %359
 E,E,, G,,B,, | E,2 z E,, | A,,/A,/G,/F,/ E,/G,/F,/E,/ | F,E, F,D, | G,,/G,/F,/E,/ ^D,/F,/E,/D,/ | %364
 E,G, F,E, | ^D,B,, E,G,, | =C,A,, B,,B,,, | E,,E, D,E, | C,E, B,,E, | A,,E, E,,E, | %370
 A,,/F,/E,/D,/ E,/D,/C,/B,,/ | C, B,2 D,/C,/ | D,/A,,/E,/D,/ E,/A,,/F,/E,/ | F,E, D,B,, | %374
 E,D, C,B,, | A,,G,, F,,A,, | D,C, B,,D, | G,F, E,D, | C,B,, ^A,,C, | F,,E, D,C, | B,,C, D,B,, | %381
 E,E,, E,2- | E,D, E,/F,/G,- | G,^A,,/B,,/ C,F,, | B,,G,, E,,F,, | B,,2 z B,, | E,^G, E,C, | %387
 F,^A, F,D, | G,B, G,E, | ^A,2 z F, | B,E, F,F,, | B,,D, F,B,, | E,G, B,E, | A,,C, E,A,, | %394
 D,F, A,D, | G,B, A,G, | F,E, ^D,B,, | E,=C, A,,B,, | E,,2 z F,, | G,,F,, G,,E,, | %400
 F,,/D,/C,/B,,/ E,,/C,/B,,/^A,,/ | D,,/D,/C,/B,,/ C,/B,,/^A,,/^G,,/ | ^A,, G,2 B,,/A,,/ | %403
 B,,/F,,/C,/B,,/ C,/F,,/D,/C,/ | D,F, ^D,B,, | E,,E, D,B,, | E,/D,/E,/F,/ G,E, | F,G, F,E, | %408
 D,C, D,B,, | E,,/E,/D,/C,/ B,,/D,/C,/B,,/ | C,B,, C,A,, | D,,/D,/C,/B,,/ ^A,,/C,/B,,/A,,/ | %412
 B,,D, C,B,, | ^A,,F,, B,,D, | G,E, F,F,, | B,,,4 | z F, ^A,C | E,^A, CD,/C,/ | D,G, E,F, | %419
 B,,F,, D,,F,, | B,,B, A,G, | F,E, ^D,B,, | E,=C, A,,B,, | E,E,, G,,B,, | E,2 z E,, | %425
 A,,/A,/G,/F,/ E,/G,/F,/E,/ | F,E, F,D, | G,,/G,/F,/E,/ ^D,/F,/E,/D,/ | E,G, F,E, | ^D,B,, E,G,, | %430
 =C,A,, B,,B,,, | E,,E, D,E, | C,E, B,,E, | A,,E, E,,E, | A,,/F,/E,/D,/ E,/D,/C,/B,,/ | %435
 C, B,2 D,/C,/ | D,/A,,/E,/D,/ E,/A,,/F,/E,/ | F,E, D,B,, | E,D, C,B,, | A,,G,, F,,A,, | %440
 D,C, B,,D, | G,F, E,D, | C,B,, ^A,,C, | F,,E, D,C, | B,,C, D,B,, | E,E,, E,2- | E,D, E,/F,/G,- | %447
 G,^A,,/B,,/ C,F,, | B,,G,, E,,F,, | B,,2 z B,, | E,^G, E,C, | F,^A, F,D, | G,B, G,E, | ^A,2 z F, | %454
 B,E, F,F,, | B,,D, F,B,, | E,G, B,E, | A,,C, E,A,, | D,F, A,D, | G,B, A,G, | F,E, ^D,B,, | %461
 E,=C, A,,B,, | E,,2 z F,, | G,,F,, G,,E,, | F,,/D,/C,/B,,/ E,,/C,/B,,/^A,,/ | %465
 D,,/D,/C,/B,,/ C,/B,,/^A,,/^G,,/ | ^A,, G,2 B,,/A,,/ | B,,/F,,/C,/B,,/ C,/F,,/D,/C,/ | %468
 D,F, ^D,B,, | E,,E, D,B,, | E,/D,/E,/F,/ G,E, | F,G, F,E, | D,C, D,B,, | %473
 E,,/E,/D,/C,/ B,,/D,/C,/B,,/ | C,B,, C,A,, | D,,/D,/C,/B,,/ ^A,,/C,/B,,/A,,/ | B,,D, C,B,, | %477
 ^A,,F,, B,,D, | G,E, F,F,, | B,,,4 |] %480

